X: 137
T:ROND DE PLOEUC 1
M:4/4
L:1/4
Q:1/4=120
Z:Yves BELOTTEAU
K:G % 1 sharps
|d3/2 z/2 cd c3/2 z/2 A3/2 z/2 |Adcd c3/2 z/2 A3/2 z/2 |d3/2 z/2 cd cBA3
/2 z/2 |Adcd c3/2 z/2 A3/2 z/2 |
d3/2 z/2 cd cBA3/2 z/2 |GBAG FGA3/2 z/2 |Adcd cBAB|AGFG A3/2 z/2 G3/2 z/
2 |
d3/2 z/2 cd cBA3/2 z/2 |GBAG FGA3/2 z/2 |Adcd cBAB|AGFG A3/2 z/2 G3/2 z/
2 |
GABc d3/2 z/2 d3/2 z/2 |edcd e3/2 z/2 d3/2 z/2 |GABc d3/2 z/2 d3/2 z/2 |
edcd e3/2 z/2 d3/2 z/2 |
BdBd cBA3/2 z/2 |ABcd e3/2 z/2 d3/2 z/2 |BdBd cBA3/2 z/2 |ABcd e3/2 z/2
d3/2 z/2 |
ABcB A3/2 z/2 G3/2|
W:
W: From "Falaleiro" http://home.t-online.de/home/pheld/homepage.htm

